X: 5
T: POLKA PIQUEE "TAITOU"
M: 4/4
L: 1/8
Q:1/4=120
K:G
|ded3/2 z/2 c/2d/2c/2B/2A/2B/2c/2A/2|ded3/2 z/2 c/2d/2c/2B/2A3/2 z/2 |de
d3/2 z/2 c/2d/2c/2B/2A/2B/2c/2A/2|ded3/2 z/2 c/2d/2c/2B/2A3/2 z/2 |
BGFG A/2B/2A/2G/2FD|cA/2c/2BG/2B/2 AG/2A/2BG|BGFG A/2B/2A/2G/2FD|cA/2c/2
BG/2B/2 AG/2A/2BG|
AFG3/2|
